assets/images/Logo.svg

<?xml version="1.0" encoding="UTF-8"?>
<svg width="48px" height="40px" viewBox="0 0 48 40" version="1.1" xmlns="http://www.w3.org/2000/svg" xmlns:xlink="http://www.w3.org/1999/xlink">
    <!-- Generator: Sketch 52.5 (67469) - http://www.bohemiancoding.com/sketch -->
    <title>Logo</title>
    <desc>Created with Sketch.</desc>
    <defs>
        <polygon id="path-1" points="29 12.6197183 19.205298 12.6197183 19.205298 26.2163315 19.205298 40 9.84271523 40 9.84271523 12.6197183 0 12.6197183 0 4 29 4"></polygon>
        <path d="M35,13 L35,4 L36,4 L36,13 L35,13 Z M35,2 L35,0 L36,0 L36,2 L35,2 Z M48,13 L46.2516556,13 L46.2516556,8.05084746 C46.2516556,7.10169017 46.0827831,6.41243153 45.7450331,5.98305085 C45.4072831,5.55367017 44.8940432,5.33898305 44.205298,5.33898305 C43.8476803,5.33898305 43.490068,5.39830449 43.1324503,5.51694915 C42.7748326,5.63559381 42.4370877,5.79660915 42.1192053,6 C41.8013229,6.20339085 41.52318,6.44632627 41.2847682,6.72881356 C41.0463564,7.01130085 40.8675503,7.3220322 40.7483444,7.66101695 L40.7483444,13 L39,13 L39,4.15254237 L40.589404,4.15254237 L40.589404,6.05084746 C41.0000021,5.42937542 41.5927114,4.93220525 42.3675497,4.55932203 C43.142388,4.18643881 43.9867504,4 44.9006623,4 C45.4966917,4 45.9933755,4.09321941 46.3907285,4.27966102 C46.7880815,4.46610263 47.1059591,4.72598703 47.3443709,5.05932203 C47.5827826,5.39265703 47.7516551,5.78530847 47.8509934,6.23728814 C47.9503316,6.6892678 48,7.18078831 48,7.71186441 L48,13 Z" id="path-2"></path>
    </defs>
    <g id="Page-1" stroke="none" stroke-width="1" fill="none" fill-rule="evenodd">
        <g id="Desktop-HD" transform="translate(-136.000000, -45.000000)">
            <g id="header-section" transform="translate(0.000000, 2.000000)">
                <g id="Logo" transform="translate(136.000000, 43.000000)">
                    <g id="T">
                        <use fill="#FFFFFF" xlink:href="#path-1"></use>
                        <use fill="#011627" xlink:href="#path-1"></use>
                    </g>
                    <g id="in">
                        <use fill="#FFFFFF" xlink:href="#path-2"></use>
                        <use fill="#000000" xlink:href="#path-2"></use>
                    </g>
                </g>
            </g>
        </g>
    </g>
</svg>

<svg width="48" height="40" xmlns="http://www.w3.org/2000/svg" xmlns:xlink="http://www.w3.org/1999/xlink">
    <defs>
        <path id="t" d="M29 12.62h-9.795V40H9.843V12.62H0V4h29z" />
        <path
            d="M35 13V4h1v9h-1zm0-11V0h1v2h-1zm13 11h-1.748V8.05c0-.948-.17-1.638-.507-2.067-.338-.43-.851-.644-1.54-.644-.357 0-.715.06-1.073.178-.357.119-.695.28-1.013.483a3.679 3.679 0 00-.834.729 2.957 2.957 0 00-.537.932V13H39V4.153h1.59V6.05c.41-.622 1.003-1.119 1.778-1.492A5.764 5.764 0 0144.9 4c.596 0 1.092.093 1.49.28a2.4 2.4 0 01.953.78c.239.333.408.725.507 1.177.1.452.149.944.149 1.475V13z"
            id="in" />
    </defs>
    <g fill="none" fill-rule="evenodd">
        <g>
            <use fill="#FFF" xlink:href="#t" />
            <use fill="#011627" xlink:href="#t" />
        </g>
        <g>
            <use fill="#FFF" xlink:href="#in" />
            <use fill="#000" xlink:href="#in" />
        </g>
    </g>
</svg>
